X:6005
T:Gan Ainm
R:Reel
S:
H:
N:
D:Milltown 1999 
Z:Adrian Scahill
M:4/4
L:1/8
K:D
cAAG EAAB|cBce dfed|cAAG EFGB|BAGg gedB|\
cBAG EAAB|cBAc dfed|Bccd egge|1 dBB2 efdB:|2 dBB2 efdf||\
eaag a3g|eaa2 c'aba|eggf g3f|egg2 bgag|\
eaag a3g|eaa2 c'aba|eaag edef|fgga gedg:||
